frontend/public/images/dashboards/icon_commodities_white.svg

<?xml version="1.0" encoding="UTF-8"?>
<svg width="50px" height="50px" viewBox="0 0 50 50" version="1.1" xmlns="http://www.w3.org/2000/svg" xmlns:xlink="http://www.w3.org/1999/xlink">
    <!-- Generator: Sketch 52.2 (67145) - http://www.bohemiancoding.com/sketch -->
    <title>commodities_white</title>
    <desc>Created with Sketch.</desc>
    <g id="Page-1" stroke="none" stroke-width="1" fill="none" fill-rule="evenodd">
        <g id="dashboard-7b" transform="translate(-975.000000, -325.000000)" fill="#FFFFFF">
            <g id="commodities_white" transform="translate(975.000000, 325.000000)">
                <g id="Group-20">
                    <path d="M32.6086957,45.652337 C33.2086957,45.652337 33.6956522,45.1653804 33.6956522,44.5653804 C33.6956522,43.9653804 33.2086957,43.4784239 32.6086957,43.4784239 L18.4782609,43.4784239 C17.8782609,43.4784239 17.3913043,43.9653804 17.3913043,44.5653804 C17.3913043,45.1653804 17.8782609,45.652337 18.4782609,45.652337 L32.6086957,45.652337 Z" id="Fill-1"></path>
                    <path d="M35.8695652,45.652337 C35.8695652,44.4534239 36.8445652,43.4784239 38.0434783,43.4784239 C39.2423913,43.4784239 40.2173913,44.4534239 40.2173913,45.652337 C40.2173913,46.85125 39.2423913,47.82625 38.0434783,47.82625 C36.8445652,47.82625 35.8695652,46.85125 35.8695652,45.652337 M38.0434783,41.3045109 C35.6461957,41.3045109 33.6956522,43.2550543 33.6956522,45.652337 C33.6956522,46.4447283 33.9119565,47.1854891 34.2836957,47.82625 L24.4565217,47.82625 C23.8581522,47.82625 23.3695652,48.314837 23.3695652,48.9132065 C23.3695652,49.5110326 23.8581522,50.000163 24.4565217,50.000163 L41.3043478,50.000163 C41.9021739,50.000163 42.3913043,49.5110326 42.3913043,48.9132065 C42.3913043,48.4719022 42.1244565,48.0920109 41.7451087,47.9219022 C42.1521739,47.2604891 42.3913043,46.4844022 42.3913043,45.652337 C42.3913043,43.2550543 40.4407609,41.3045109 38.0434783,41.3045109" id="Fill-5"></path>
                    <g id="Group-11" transform="translate(0.000000, 0.000163)">
                        <path d="M47.826087,40.2173913 L46.7391304,40.2173913 L46.7391304,39.1304348 C46.7391304,38.5304348 46.2521739,38.0434783 45.6521739,38.0434783 L4.34782609,38.0434783 C3.74782609,38.0434783 3.26086957,38.5304348 3.26086957,39.1304348 L3.26086957,40.2173913 L2.17391304,40.2173913 L2.17391304,22.826087 L3.26086957,22.826087 L3.26086957,31.5217391 C3.26086957,34.5184783 5.69891304,36.9565217 8.69565217,36.9565217 L41.3043478,36.9565217 C44.301087,36.9565217 46.7391304,34.5184783 46.7391304,31.5217391 L46.7391304,22.826087 L47.826087,22.826087 L47.826087,40.2173913 Z M5.43478261,10.8695652 L44.5652174,10.8695652 L44.5652174,13.0434783 L7.60869565,13.0434783 C7.00869565,13.0434783 6.52173913,13.5304348 6.52173913,14.1304348 C6.52173913,14.7304348 7.00869565,15.2173913 7.60869565,15.2173913 L44.5652174,15.2173913 L44.5652174,31.5217391 C44.5652174,33.3201087 43.1027174,34.7826087 41.3043478,34.7826087 L8.69565217,34.7826087 C6.89728261,34.7826087 5.43478261,33.3201087 5.43478261,31.5217391 L5.43478261,10.8695652 Z M25.0271739,2.41141304 L34.4538043,8.69565217 L16.3858696,8.69565217 L25.0271739,2.41141304 Z M48.9130435,20.6521739 L46.7391304,20.6521739 L46.7391304,9.7826087 C46.7391304,9.1826087 46.2521739,8.69565217 45.6521739,8.69565217 L38.3722826,8.69565217 L25.6027174,0.182608696 C25.225,-0.0701086957 24.7293478,-0.0597826087 24.3603261,0.208152174 L12.6902174,8.69565217 L4.34782609,8.69565217 C3.74782609,8.69565217 3.26086957,9.1826087 3.26086957,9.7826087 L3.26086957,20.6521739 L1.08695652,20.6521739 C0.486956522,20.6521739 0,21.1391304 0,21.7391304 L0,41.3043478 C0,41.9043478 0.486956522,42.3913043 1.08695652,42.3913043 L3.26086957,42.3913043 L3.26086957,43.4782609 C3.26086957,43.9461957 3.56032609,44.361413 4.00380435,44.5092391 L7.26467391,45.5961957 C7.37880435,45.6347826 7.4951087,45.6527174 7.60869565,45.6527174 C8.06413043,45.6527174 8.48804348,45.3646739 8.63967391,44.9092391 C8.8298913,44.3396739 8.52228261,43.723913 7.95271739,43.5342391 L5.43478261,42.6951087 L5.43478261,40.2173913 L44.5652174,40.2173913 L44.5652174,42.8065217 L42.9918478,43.5929348 C42.4548913,43.861413 42.2375,44.5141304 42.5059783,45.0516304 C42.7744565,45.588587 43.426087,45.8070652 43.9646739,45.5375 L46.138587,44.4505435 C46.5065217,44.2663043 46.7391304,43.8902174 46.7391304,43.4782609 L46.7391304,42.3913043 L48.9130435,42.3913043 C49.5130435,42.3913043 50,41.9043478 50,41.3043478 L50,21.7391304 C50,21.1391304 49.5130435,20.6521739 48.9130435,20.6521739 Z" id="Fill-9"></path>
                    </g>
                    <path d="M44.5652174,47.82625 C43.9668478,47.82625 43.4782609,48.314837 43.4782609,48.9132065 C43.4782609,49.5110326 43.9668478,50.000163 44.5652174,50.000163 C45.1630435,50.000163 45.6521739,49.5110326 45.6521739,48.9132065 C45.6521739,48.314837 45.1630435,47.82625 44.5652174,47.82625" id="Fill-12"></path>
                    <path d="M21.1956522,47.82625 C20.5972826,47.82625 20.1086957,48.314837 20.1086957,48.9132065 C20.1086957,49.5110326 20.5972826,50.000163 21.1956522,50.000163 C21.7934783,50.000163 22.2826087,49.5110326 22.2826087,48.9132065 C22.2826087,48.314837 21.7934783,47.82625 21.1956522,47.82625" id="Fill-14"></path>
                    <path d="M48.9130435,47.82625 L47.826087,47.82625 C47.2277174,47.82625 46.7391304,48.314837 46.7391304,48.9132065 C46.7391304,49.5110326 47.2277174,50.000163 47.826087,50.000163 L48.9130435,50.000163 C49.5108696,50.000163 50,49.5110326 50,48.9132065 C50,48.314837 49.5108696,47.82625 48.9130435,47.82625" id="Fill-16"></path>
                    <path d="M10.8695652,45.652337 C10.8695652,44.4534239 11.8445652,43.4784239 13.0434783,43.4784239 C14.2423913,43.4784239 15.2173913,44.4534239 15.2173913,45.652337 C15.2173913,46.85125 14.2423913,47.82625 13.0434783,47.82625 C11.8445652,47.82625 10.8695652,46.85125 10.8695652,45.652337 M17.9347826,47.82625 L16.8032609,47.82625 C17.175,47.1854891 17.3913043,46.4447283 17.3913043,45.652337 C17.3913043,43.2550543 15.4407609,41.3045109 13.0434783,41.3045109 C10.6461957,41.3045109 8.69565217,43.2550543 8.69565217,45.652337 C8.69565217,46.4447283 8.91195652,47.1854891 9.28369565,47.82625 L1.08695652,47.82625 C0.488586957,47.82625 0,48.314837 0,48.9132065 C0,49.5110326 0.488586957,50.000163 1.08695652,50.000163 L17.9347826,50.000163 C18.5326087,50.000163 19.0217391,49.5110326 19.0217391,48.9132065 C19.0217391,48.314837 18.5326087,47.82625 17.9347826,47.82625" id="Fill-18"></path>
                </g>
            </g>
        </g>
    </g>
</svg>

<svg width="50" height="50" xmlns="http://www.w3.org/2000/svg"><g fill="#FFF" fill-rule="evenodd"><path d="M32.609 45.652a1.087 1.087 0 0 0 0-2.174h-14.13a1.087 1.087 0 0 0 0 2.174h14.13z"/><path d="M35.87 45.652c0-1.199.975-2.174 2.173-2.174 1.2 0 2.174.975 2.174 2.174a2.176 2.176 0 0 1-2.174 2.174 2.176 2.176 0 0 1-2.173-2.174m2.173-4.347a4.353 4.353 0 0 0-4.347 4.347c0 .793.216 1.533.588 2.174h-9.827a1.09 1.09 0 0 0-1.087 1.087A1.09 1.09 0 0 0 24.457 50h16.847a1.09 1.09 0 0 0 1.087-1.087 1.09 1.09 0 0 0-.646-.991 4.317 4.317 0 0 0 .646-2.27 4.353 4.353 0 0 0-4.348-4.347"/><path d="M47.826 40.218H46.74V39.13c0-.6-.487-1.087-1.087-1.087H4.348c-.6 0-1.087.487-1.087 1.087v1.087H2.174V22.826H3.26v8.696a5.441 5.441 0 0 0 5.435 5.435h32.608a5.441 5.441 0 0 0 5.435-5.435v-8.696h1.087v17.392zM5.435 10.87h39.13v2.174H7.61a1.087 1.087 0 0 0 0 2.174h36.956v16.304a3.264 3.264 0 0 1-3.26 3.26H8.694a3.264 3.264 0 0 1-3.26-3.26V10.87zm19.592-8.458l9.427 6.284H16.386l8.641-6.284zm23.886 18.24h-2.174V9.782c0-.6-.487-1.086-1.087-1.086h-7.28L25.602.183a1.086 1.086 0 0 0-1.242.025L12.69 8.696H4.348c-.6 0-1.087.487-1.087 1.087v10.87H1.087c-.6 0-1.087.486-1.087 1.086v19.566c0 .6.487 1.086 1.087 1.086h2.174v1.087c0 .468.3.884.743 1.031l3.26 1.087a1.087 1.087 0 0 0 .688-2.062l-2.517-.839v-2.477h39.13v2.589l-1.573.786a1.087 1.087 0 1 0 .973 1.945l2.174-1.087c.368-.185.6-.56.6-.973v-1.087h2.174c.6 0 1.087-.486 1.087-1.086V21.739c0-.6-.487-1.087-1.087-1.087zM44.565 47.826a1.09 1.09 0 0 0-1.087 1.087A1.09 1.09 0 0 0 44.565 50a1.09 1.09 0 0 0 1.087-1.087 1.09 1.09 0 0 0-1.087-1.087M21.196 47.826a1.09 1.09 0 0 0-1.087 1.087A1.09 1.09 0 0 0 21.196 50a1.09 1.09 0 0 0 1.087-1.087 1.09 1.09 0 0 0-1.087-1.087M48.913 47.826h-1.087a1.09 1.09 0 0 0-1.087 1.087A1.09 1.09 0 0 0 47.826 50h1.087A1.09 1.09 0 0 0 50 48.913a1.09 1.09 0 0 0-1.087-1.087"/><path d="M10.87 45.652c0-1.199.975-2.174 2.173-2.174 1.2 0 2.174.975 2.174 2.174a2.176 2.176 0 0 1-2.174 2.174 2.176 2.176 0 0 1-2.173-2.174m7.065 2.174h-1.132c.372-.64.588-1.381.588-2.174a4.353 4.353 0 0 0-4.348-4.347 4.353 4.353 0 0 0-4.347 4.347c0 .793.216 1.533.588 2.174H1.087A1.09 1.09 0 0 0 0 48.913 1.09 1.09 0 0 0 1.087 50h16.848a1.09 1.09 0 0 0 1.087-1.087 1.09 1.09 0 0 0-1.087-1.087"/></g></svg>
